X:1
T:Title
%%score { ( 1 3 ) | 2 }
L:1/8
Q:1/4=114
M:6/4
K:D
V:1 treble nm="Grand Piano"
V:3 treble 
V:2 bass 
V:1
 F2 F2 E2 D4 F2 | [FA]4 [GB]2 [FA]6 | F2 F2 E2 D4 F2 | [FA]4 [DF]2 [CE]6 | F2 F2 A2 [Fd]4 [DFA]2 | %5
w: D.~B.~Towner * * * *|||||
 [DGB]4 [DGd]2 [DFA]6 | [A,D]2 [A,D]2 [DF]2 [DFA]4 [A,DF]2 | [CE]4- [G,CE]2 D6 | %8
w: |||
 A2 F2 [FA]2 [Fd]2 [DA]2 [A,DF]2 | [DFA]2 [A,FA]2 [B,=F^G]2 [CE=G]6 | %10
w: ||
 [A,EG]2 [A,CE]2 [CEG]2 [CGB]2 [EGc]2 [CGB]2 | [GB]2 [FA]2 [DF]2 [FA]6 | %12
w: ||
 [FA]2 [DF]2 [DA]2 [Fd]2 [Gc]2 [Ad]2 | e2 B2 B2 B6 | B2 c2 d2 d4 F2 |[M:15/8] [CE]6 z3 z6 |] %16
w: ||||
V:2
 [D,A,D]2 [D,A,D]2 [D,G,D]2 [D,F,]4 [D,A,D]2 | [D,D]4 [D,D]2 [D,D]6 | %2
 [D,A,D]2 [D,A,D]2 [G,A,C]2 [F,A,]4 [D,A,D]2 | [D,D]4 [D,A,]2 [A,,A,]6 | %4
 [D,A,D]2 [D,A,D]2 [D,F,D]2 [D,A,]4 D,2 | G,,4 B,,2 D,6 | F,2 F,2 A,2 D,4 D,2 | A,,6 [D,F,]6 | %8
 [D,F,D]2 [D,A,D]2 [D,D]2 [D,A,]2 [D,F,]2 D,2 | D,2 D,2 B,,2 A,,6 | A,,2 A,,2 A,,2 A,,2 A,,2 A,,2 | %11
 [D,D]2 [D,D]2 [D,A,]2 [D,D]6 | [D,D]2 [D,A,]2 [D,F,]2 [D,A,]2 [E,A,]2 [F,A,]2 | %13
 [G,B,G]2 [G,DG]2 [G,DG]2 [G,D=F]6 | [^G,D=F]2 [G,CF]2 [G,B,F]2 [A,^F]4[K:bass] [D,A,D]2 | %15
[M:15/8] .[A,,A,]6 [D,F,]3- [D,F,]6 |] %16
V:3
 x12 | x12 | x12 | x12 | x12 | x12 | x12 | .A,6 z6 | x12 | x12 | x12 | x12 | x12 | x12 | x12 | %15
[M:15/8] z3 z G,2 D3- D6 |] %16

